X:102
T:Ivy Green. Le4.102, The
M:6/8
L:1/8
Q:1/4=100
B:L.Leadley MS#4 c1850
Z:Village Music Project, 2016 Ruairidh Greig
K:F
cc|c2c c=Bc|(dc)=Bc2A|FFF (FE)F|G3Cz c|
c2c  c=Bc|(dc)=B ccd|(ef)e  (dA)=B|c3c z||
c|ddc ddc|d2c c2c|=BBB (Bcd)|(c3cc>)c|
c2A F2F|f2e {e}df>f|f2A d2c|F3F z||
f|f2e (GBd)|d2c F2c|d2c dc>c|(BAG)A2f|
f2e (GAd)|(d2c) F2c|(efg) fFG|A2GF2z|
(f2e) .G.B.d|(d2c).F2.c|(d2c) (d2c)|(BAG)A2f|
f2e .G.B.d|(d2c)F2f|.e.d.c .B.A.G|F3f3H"Fine"|]

